X:10384
T:Marshall Hill's Clog
M:4/4
L:1/8
K:Bb
d>e|f>bd>f B>dF>B|D>B,D>F B2 (3FGA|B>FD>F d>cB>d|f>ed>e c2d>e|!
f>bd>f B>dF>B|D>B,D>F B2(3FGA|B>FB>d c>eA>c|B2d2 B2:|!
|:G>A|B>df>a b>ag>^f|g>^fg>a g2c>B|A>FA>c e>gf>e|d>cd>e f2d>c|!
B>df>a b>fd>D|E>Gc>e g>ec>E|D>FB>d c>eA>c|B2d2 B2:|!
